material/.icons/material/send-clock.svg

<svg xmlns="http://www.w3.org/2000/svg" viewBox="0 0 24 24"><path d="M2 3v7l9 2-9 2v7l7.27-3.11A7 7 0 0016 23a7 7 0 007-7 7 7 0 00-7-7L2 3m14 8a5 5 0 015 5 5 5 0 01-5 5 5 5 0 01-5-5 5 5 0 015-5m-1 1.5v4l3 2 .75-1.25-2.25-1.5V12.5H15z"/></svg>

<?xml version="1.0" encoding="UTF-8"?><!DOCTYPE svg PUBLIC "-//W3C//DTD SVG 1.1//EN" "http://www.w3.org/Graphics/SVG/1.1/DTD/svg11.dtd"><svg xmlns="http://www.w3.org/2000/svg" xmlns:xlink="http://www.w3.org/1999/xlink" version="1.1" id="mdi-send-clock" width="24" height="24" viewBox="0 0 24 24"><path d="M2 3V10L11 12L2 14V21L9.27 17.89A7 7 0 0 0 16 23A7 7 0 0 0 23 16A7 7 0 0 0 16 9L2 3M16 11A5 5 0 0 1 21 16A5 5 0 0 1 16 21A5 5 0 0 1 11 16A5 5 0 0 1 16 11M15 12.5V16.5L18 18.5L18.75 17.25L16.5 15.75V12.5H15Z" /></svg>
